X:1
T:We Will Walk in the Streets of the City
T:We Will Walk in the Streets of the City
T:Thomas H. Peacock
T:A. Flamman, 1874
T:Public Domain Courtesy of the Cyber Hymnal™
T:Public Domain Courtesy of the Cyber Hymnal™
C:Thomas H. Peacock
Z:Public Domain
Z:Courtesy of the Cyber Hymnal™
%%score ( 1 2 ) ( 3 4 )
L:1/8
Q:1/4=95
M:4/4
K:Ab
V:1 treble 
V:2 treble 
V:3 bass 
V:4 bass 
V:1
 [CE]>[CE] | [DF]3 [DG] (A>B) ([FA]>[DF]) | [CE] [CA]3- [CA]2 [EA]>[EA] | %3
w: 1.~When we|reach the gold- * en *|ci- ty, * When we|
w: 2.~Here our|hap- py hearts * al- *|rea- dy * Taste by|
w: 3.~But how|great will be * our *|plea- sure, * When we,|
w: 4.~Then we’ll|glad- ly wait * a *|lit- tle, * Glad- ly|
 [DB]3 [DB] [DB]2 ([CA][DB]) | [Ec]6 [CE]>[CE] | [DF]3 [DG] (A>B) ([FA]>[DF]) | %6
w: pass the pear- ly *|gate, Where our|friends, who went * be- *|
w: faith the bliss of *|Heav’n; To our|hun- gry souls * the *|
w: free from sin and *|pain, On the|o- ther side * of *|
w: still our bur- dens *|bear; Soon we’ll|get a crown * of *|
 [CE] [CA]3- [CA]2 [EA]>[EA] | [DB]2 ([CA][DB]) [Ec]2 [EB]2 | [EA]6 ||"^Refrain" [CE]>[CA] | %10
w: fore us, * For our|com- ing * watch and|wait.||
w: man- na * From a-|bove is * free- ly|giv’n.||
w: Jor- dan, * See each|o- ther * there a-|gain.|We will|
w: glo- ry, * Soon we’ll|Je- sus’ * “well done”|hear.||
 [Ec]2 [Ec]>[Ec] [Ec]2 [DB]>[CA] | [DB] [CA]3- [CA]2 [CA]>[Ec] | [Ae]3 [Ae] [Ac]2 A2 | %13
w: |||
w: |||
w: walk in the streets of the|ci- ty, * With our|loved ones gone be-|
w: |||
 [GB]6 [Ec]>[Ed] | [Ee]2 [Ec]>[DB] [CA]2 [GB][_Gc] | [Fd] [Fd]3- [Fd]2 [Ec]>[EB] | %16
w: |||
w: |||
w: fore; We will|sit on the banks of the|ri- ver, * We will|
w: |||
 [EA]3 [EA] [Ac]2 [GB]2 | A6 |] %18
w: ||
w: ||
w: meet to part no|more.|
w: ||
V:2
 x2 | x4 F2 x2 | x8 | x8 | x8 | x4 F2 x2 | x8 | x8 | x6 || x2 | x8 | x8 | x6 A2 | x8 | x8 | x8 | %16
 x8 | A6 |] %18
V:3
 [A,,A,]>[A,,A,] | [D,A,]3 [D,A,] [D,D]2 [D,A,]2 | [A,,A,] [A,,A,]3- [A,,A,]2 [C,A,]>[C,A,] | %3
 [E,G,]3 [E,G,] [E,G,]2 (A,G,) | A,6 [A,,A,]>[A,,A,] | [D,A,]3 [D,A,] [D,D]2 [D,A,]2 | %6
 [A,,A,] [A,,A,]3- [A,,A,]2 [C,A,]>[C,A,] | [E,G,]2 (A,G,) (A,E) [E,D]2 | [A,,A,C]6 || %9
 [A,,A,]>[A,,A,] | [A,,A,]2 [A,,A,]>[A,,A,] [A,,A,]2 [A,,E,]>[A,,E,] | %11
 [A,,E,] [A,,E,]3- [A,,E,]2 A,>A, | [A,C]3 [A,C] [A,E]2 [F,=D]2 | [E,E]6 A,>[A,B,] | %14
 [A,C]2 [A,,A,]>[A,,E,] [A,,E,]2 E,[E,A,] | [D,A,] [D,A,]3- [D,A,]2 [E,A,]>[E,D] | %16
 [E,C]3 [E,C] [E,E]2 [E,D]2 | [A,,A,C]6 |] %18
V:4
 x2 | x8 | x8 | x6 E,2 | A,6 x2 | x8 | x8 | x2 E,2 A,2 x2 | x6 || x2 | x8 | x6 A,>A, | x8 | %13
 x6 A,3/2 x/ | x6 E, x | x8 | x8 | x6 |] %18

